X:89
T: Elvetettem kenderkémet
O: Bogdánfalva (Bákó), 1935
Q: 1/4=120
M:2/4
L:1/4
K:F
D/G/G/G/ | G/G/ G/B/ | 
A/G/D | A/G/D | 
d (A/>G/) | G/B/ d/d/ |
d (A/>G/) | G/(E//^F//) G/G/ | 

